X:1376
T:The Slow Road
T:av Karen Myers 4/2004
C:Karen Myers
Z:[[http://www.bluerose.karenlmyers.org/IncipitsGanglat11.html|Karen Myers (#2338)]]
M:2/4
L:1/16
R:Gånglåt
K:Gm
D2 |: B2Bc A2AB | G4 G2>B2 | d2d2 ^c2=Bc | d4- d2A2 | BABd AGAB | G4 F2>D2 |
B,2B,2 C2B,C |1 D4- D2D2 :|2 D4- D2A2 |: B2GG G^FGB | A2F2 F2dc | BAGB A2F2 |
D4- D2DC | B,A,B,C D2^F2 | A2BA GABc | d2D2 D2BA |1 G4- G2A2 :|2 G6 z2 |]
(:musicend:)

(:music:)
